X: 18508
T: I Didn't Drink The Rum
R: polka
M: 2/4
K: Gmajor
|:B>c dd|cA B2|AG FD|GA/G/ FD|
B>c dd|cA B2|AG FD|G2 G2:|
|:ga/g/ fd|ga/g/ fd|fg ag|fe d2|
B>c dd|cA B2|AG FD|G2 G2:|

